Origami/32x32/apps/flightgear.svg

<svg width="32" height="32" version="1" xmlns="http://www.w3.org/2000/svg">
 <rect transform="matrix(0,-1,-1,0,0,0)" x="-31" y="-30" width="28" height="28" rx="1.5" ry="1.5" style="opacity:.2"/>
 <rect transform="matrix(0,-1,-1,0,0,0)" x="-30" y="-30" width="28" height="28" rx="1.5" ry="1.5" style="fill:#1e87e4"/>
 <path d="m3.5 2c-0.831 0-1.5 0.669-1.5 1.5v1c0-0.831 0.669-1.5 1.5-1.5h25c0.831 0 1.5 0.669 1.5 1.5v-1c0-0.831-0.669-1.5-1.5-1.5h-25z" style="fill:#ffffff;opacity:.2"/>
 <path d="m27 7.1499q0 1.3702-2.347 3.7171l-3.779 3.779 2.252 11.749 0.016 0.094q0 0.22-0.142 0.363l-1.008 1.007q-0.142 0.142-0.362 0.142-0.331 0-0.457-0.283l-4.315-9.056-3.858 3.857q1.071 3.75 1.071 3.97t-0.142 0.361l-1.008 1.009q-0.142 0.142-0.362 0.142-0.284 0-0.441-0.253l-2.4409-4.41-4.4093-2.44q-0.2678-0.142-0.2678-0.442 0-0.22 0.1417-0.362l1.0079-1.023q0.1418-0.142 0.3622-0.142 0.2205 0 3.9682 1.071l3.858-3.858-9.0545-4.315q-0.2835-0.126-0.2835-0.457 0-0.22 0.1417-0.362l1.0079-1.008q0.1418-0.1415 0.3622-0.1415 0.0631 0 0.0945 0.0157l11.7477 2.2518 3.779-3.7794q2.348-2.3466 3.716-2.3466 0.505 0 0.828 0.3228t0.323 0.8268z" style="fill:#2873b4"/>
 <path d="m27 6.1499q0 1.3702-2.347 3.7167l-3.779 3.7794 2.252 11.749 0.016 0.094q0 0.22-0.142 0.363l-1.008 1.007q-0.142 0.142-0.362 0.142-0.331 0-0.457-0.283l-4.315-9.056-3.858 3.857q1.071 3.75 1.071 3.97t-0.142 0.361l-1.008 1.009q-0.142 0.142-0.362 0.142-0.284 0-0.441-0.253l-2.4409-4.41-4.4093-2.44q-0.2678-0.142-0.2678-0.442 0-0.22 0.1417-0.362l1.0079-1.023q0.1418-0.142 0.3622-0.142 0.2205 0 3.9682 1.071l3.858-3.858-9.0545-4.315q-0.2835-0.126-0.2835-0.457 0-0.22 0.1417-0.362l1.0079-1.008q0.1418-0.1415 0.3622-0.1415 0.0631 0 0.0945 0.0157l11.7477 2.2518 3.779-3.7794q2.348-2.3466 3.716-2.3466 0.505 0 0.828 0.3228t0.323 0.8268z" style="fill:#ffffff"/>
</svg>

<svg xmlns="http://www.w3.org/2000/svg" width="32" height="32" version="1">
 <rect style="opacity:0.2" width="28" height="28" x="-31" y="-30" rx="1.5" ry="1.5" transform="matrix(0,-1,-1,0,0,0)"/>
 <rect style="fill:#1e87e4" width="28" height="28" x="-30" y="-30" rx="1.5" ry="1.5" transform="matrix(0,-1,-1,0,0,0)"/>
 <path style="opacity:0.2;fill:#ffffff" d="m3.5 2c-0.831 0-1.5 0.669-1.5 1.5v1c0-0.831 0.669-1.5 1.5-1.5h25c0.831 0 1.5 0.669 1.5 1.5v-1c0-0.831-0.669-1.5-1.5-1.5h-25z"/>
 <path style="fill:#2873b4" d="M 27,7.1499 Q 27,8.5201 24.653,10.867 L 20.874,14.646 23.126,26.395 23.142,26.489 Q 23.142,26.709 23,26.852 L 21.992,27.859 Q 21.85,28.001 21.63,28.001 21.299,28.001 21.173,27.718 L 16.858,18.662 13,22.519 Q 14.071,26.269 14.071,26.489 14.071,26.709 13.929,26.85 L 12.921,27.859 Q 12.779,28.001 12.559,28.001 12.275,28.001 12.118,27.748 L 9.6771,23.338 5.2678,20.898 Q 5,20.756 5,20.456 5,20.236 5.1417,20.094 L 6.1496,19.071 Q 6.2914,18.929 6.5118,18.929 6.7323,18.929 10.48,20 L 14.338,16.142 5.2835,11.827 Q 5,11.701 5,11.37 5,11.15 5.1417,11.008 L 6.1496,10 Q 6.2914,9.8585 6.5118,9.8585 6.5749,9.8585 6.6063,9.8742 L 18.354,12.126 22.133,8.3466 Q 24.481,6 25.849,6 26.354,6 26.677,6.3228 27,6.6456 27,7.1496 Z"/>
 <path style="fill:#ffffff" d="M 27,6.1499 Q 27,7.5201 24.653,9.8666 L 20.874,13.646 23.126,25.395 23.142,25.489 Q 23.142,25.709 23,25.852 L 21.992,26.859 Q 21.85,27.001 21.63,27.001 21.299,27.001 21.173,26.718 L 16.858,17.662 13,21.519 Q 14.071,25.269 14.071,25.489 14.071,25.709 13.929,25.85 L 12.921,26.859 Q 12.779,27.001 12.559,27.001 12.275,27.001 12.118,26.748 L 9.6771,22.338 5.2678,19.898 Q 5,19.756 5,19.456 5,19.236 5.1417,19.094 L 6.1496,18.071 Q 6.2914,17.929 6.5118,17.929 6.7323,17.929 10.48,19 L 14.338,15.142 5.2835,10.827 Q 5,10.701 5,10.37 5,10.15 5.1417,10.008 L 6.1496,9 Q 6.2914,8.8585 6.5118,8.8585 6.5749,8.8585 6.6063,8.8742 L 18.354,11.126 22.133,7.3466 Q 24.481,5 25.849,5 26.354,5 26.677,5.3228 27,5.6456 27,6.1496 Z"/>
</svg>
